img/3.svg

<svg width="65" height="89" viewBox="0 0 65 89" fill="none" xmlns="http://www.w3.org/2000/svg">
<g clip-path="url(#clip0_104_33)">
<path d="M23.13 35.9055H32.8151C35.2954 35.9055 37.3229 35.4724 38.8977 34.6063C40.5119 33.7008 41.7127 32.4409 42.5001 30.8268C43.2875 29.1732 43.6812 27.2244 43.6812 24.9803C43.6812 23.248 43.3072 21.6535 42.5591 20.1968C41.8505 18.7402 40.7481 17.5787 39.2521 16.7126C37.756 15.8071 35.8465 15.3543 33.5237 15.3543C31.9489 15.3543 30.4135 15.689 28.9174 16.3583C27.4214 16.9882 26.1812 17.8937 25.1969 19.0748C24.2521 20.2559 23.7796 21.6929 23.7796 23.3858H3.81899C3.81899 18.5039 5.15757 14.3307 7.83474 10.8661C10.5513 7.3622 14.1143 4.68504 18.5237 2.83465C22.9725 0.944882 27.756 0 32.8741 0C38.9765 0 44.3308 0.944882 48.9371 2.83465C53.5434 4.68504 57.1261 7.44094 59.6851 11.1024C62.2836 14.7244 63.5828 19.2126 63.5828 24.5669C63.5828 27.5197 62.8938 30.2953 61.5158 32.8937C60.1379 35.4921 58.2088 37.7756 55.7284 39.7441C53.2481 41.7126 50.3347 43.2677 46.9883 44.4095C43.6812 45.5118 40.0591 46.063 36.1221 46.063H23.13V35.9055ZM23.13 50.7283V40.8071H36.1221C40.4135 40.8071 44.3308 41.2992 47.8741 42.2835C51.4174 43.2283 54.4686 44.6457 57.0276 46.5354C59.5867 48.4252 61.5552 50.7677 62.9332 53.563C64.3111 56.3189 65.0001 59.4882 65.0001 63.0709C65.0001 67.0866 64.193 70.6693 62.5788 73.8189C60.9647 76.9685 58.7009 79.626 55.7875 81.7913C52.8741 83.9567 49.4686 85.6102 45.571 86.752C41.6733 87.8543 37.441 88.4055 32.8741 88.4055C29.2914 88.4055 25.7088 87.9331 22.1261 86.9882C18.5434 86.0039 15.2757 84.5079 12.3229 82.5C9.37017 80.4528 6.98828 77.8543 5.17726 74.7047C3.4056 71.5157 2.51978 67.7165 2.51978 63.3071H22.4804C22.4804 65.1181 22.9725 66.7717 23.9568 68.2677C24.9804 69.7244 26.3387 70.8858 28.0316 71.752C29.7245 72.6181 31.5552 73.0512 33.5237 73.0512C35.9647 73.0512 38.0316 72.5984 39.7245 71.6929C41.4568 70.748 42.7757 69.4882 43.6812 67.9134C44.5867 66.3386 45.0395 64.5866 45.0395 62.6575C45.0395 59.7441 44.5473 57.4213 43.5631 55.689C42.6182 53.9567 41.2206 52.6968 39.3702 51.9095C37.5591 51.122 35.3741 50.7283 32.8151 50.7283H23.13Z" fill="#CA0026"/>
<path d="M20.6102 35.9055H30.2953C32.7756 35.9055 34.8032 35.4724 36.378 34.6063C37.9921 33.7008 39.1929 32.4409 39.9803 30.8268C40.7677 29.1732 41.1614 27.2244 41.1614 24.9803C41.1614 23.248 40.7874 21.6535 40.0394 20.1968C39.3307 18.7402 38.2283 17.5787 36.7323 16.7126C35.2362 15.8071 33.3268 15.3543 31.0039 15.3543C29.4291 15.3543 27.8937 15.689 26.3976 16.3583C24.9016 16.9882 23.6614 17.8937 22.6772 19.0748C21.7323 20.2559 21.2598 21.6929 21.2598 23.3858H1.29921C1.29921 18.5039 2.6378 14.3307 5.31496 10.8661C8.0315 7.3622 11.5945 4.68504 16.0039 2.83465C20.4528 0.944882 25.2362 0 30.3543 0C36.4567 0 41.811 0.944882 46.4173 2.83465C51.0236 4.68504 54.6063 7.44094 57.1654 11.1024C59.7638 14.7244 61.063 19.2126 61.063 24.5669C61.063 27.5197 60.374 30.2953 58.9961 32.8937C57.6181 35.4921 55.689 37.7756 53.2087 39.7441C50.7283 41.7126 47.815 43.2677 44.4685 44.4095C41.1614 45.5118 37.5394 46.063 33.6024 46.063H20.6102V35.9055ZM20.6102 50.7283V40.8071H33.6024C37.8937 40.8071 41.811 41.2992 45.3543 42.2835C48.8976 43.2283 51.9488 44.6457 54.5079 46.5354C57.0669 48.4252 59.0354 50.7677 60.4134 53.563C61.7913 56.3189 62.4803 59.4882 62.4803 63.0709C62.4803 67.0866 61.6732 70.6693 60.0591 73.8189C58.4449 76.9685 56.1811 79.626 53.2677 81.7913C50.3543 83.9567 46.9488 85.6102 43.0512 86.752C39.1535 87.8543 34.9213 88.4055 30.3543 88.4055C26.7717 88.4055 23.189 87.9331 19.6063 86.9882C16.0236 86.0039 12.7559 84.5079 9.80315 82.5C6.85039 80.4528 4.4685 77.8543 2.65748 74.7047C0.885827 71.5157 0 67.7165 0 63.3071H19.9606C19.9606 65.1181 20.4528 66.7717 21.437 68.2677C22.4606 69.7244 23.8189 70.8858 25.5118 71.752C27.2047 72.6181 29.0354 73.0512 31.0039 73.0512C33.4449 73.0512 35.5118 72.5984 37.2047 71.6929C38.937 70.748 40.2559 69.4882 41.1614 67.9134C42.0669 66.3386 42.5197 64.5866 42.5197 62.6575C42.5197 59.7441 42.0276 57.4213 41.0433 55.689C40.0984 53.9567 38.7008 52.6968 36.8504 51.9095C35.0394 51.122 32.8543 50.7283 30.2953 50.7283H20.6102Z" fill="url(#paint0_linear_104_33)"/>
</g>
<defs>
<linearGradient id="paint0_linear_104_33" x1="2.35323e-06" y1="88.4055" x2="103.196" y2="33.3038" gradientUnits="userSpaceOnUse">
<stop stop-color="#E5A440"/>
<stop offset="0.446563" stop-color="#EFC57B"/>
<stop offset="0.975811" stop-color="#E7AC4E"/>
</linearGradient>
<clipPath id="clip0_104_33">
<rect width="65" height="89" fill="white"/>
</clipPath>
</defs>
</svg>

<svg width="65" height="89" fill="none" xmlns="http://www.w3.org/2000/svg"><g clip-path="url(#a)"><path d="M23.13 35.906h9.685c2.48 0 4.508-.434 6.083-1.3 1.614-.905 2.815-2.165 3.602-3.78.788-1.653 1.181-3.602 1.181-5.846 0-1.732-.374-3.326-1.122-4.783-.709-1.457-1.81-2.618-3.307-3.484-1.496-.906-3.406-1.359-5.728-1.359-1.575 0-3.11.335-4.607 1.004-1.496.63-2.736 1.536-3.72 2.717-.945 1.18-1.417 2.618-1.417 4.31H3.819c0-4.881 1.339-9.054 4.016-12.519 2.716-3.504 6.28-6.181 10.689-8.031C22.972.945 27.756 0 32.874 0c6.102 0 11.457.945 16.063 2.835 4.606 1.85 8.19 4.606 10.748 8.267 2.599 3.622 3.898 8.11 3.898 13.465 0 2.953-.69 5.728-2.067 8.327-1.378 2.598-3.307 4.882-5.788 6.85-2.48 1.969-5.393 3.524-8.74 4.666-3.307 1.102-6.929 1.653-10.866 1.653H23.13V35.906Zm0 14.822v-9.92h12.992c4.291 0 8.209.491 11.752 1.475 3.543.945 6.595 2.363 9.154 4.252 2.559 1.89 4.527 4.233 5.905 7.028C64.311 56.319 65 59.488 65 63.071c0 4.016-.807 7.598-2.421 10.748-1.614 3.15-3.878 5.807-6.791 7.972-2.914 2.166-6.32 3.82-10.217 4.961-3.898 1.102-8.13 1.654-12.697 1.654-3.583 0-7.165-.473-10.748-1.418-3.583-.984-6.85-2.48-9.803-4.488-2.953-2.047-5.335-4.646-7.146-7.795-1.771-3.19-2.657-6.989-2.657-11.398h19.96c0 1.811.492 3.465 1.477 4.96 1.023 1.457 2.382 2.619 4.075 3.485 1.692.866 3.523 1.3 5.492 1.3 2.44 0 4.508-.454 6.2-1.36 1.733-.944 3.052-2.204 3.957-3.779.906-1.574 1.358-3.326 1.358-5.255 0-2.914-.492-5.237-1.476-6.969-.945-1.732-2.342-2.992-4.193-3.78-1.81-.787-3.996-1.18-6.555-1.18H23.13Z" fill="#CA0026"/><path d="M20.61 35.906h9.685c2.48 0 4.508-.434 6.083-1.3 1.614-.905 2.815-2.165 3.602-3.78.788-1.653 1.181-3.602 1.181-5.846 0-1.732-.374-3.326-1.122-4.783-.708-1.457-1.81-2.618-3.307-3.484-1.496-.906-3.405-1.359-5.728-1.359-1.575 0-3.11.335-4.606 1.004-1.496.63-2.737 1.536-3.72 2.717-.946 1.18-1.418 2.618-1.418 4.31H1.3c0-4.881 1.338-9.054 4.015-12.519 2.716-3.504 6.28-6.181 10.689-8.031C20.453.945 25.236 0 30.354 0c6.103 0 11.457.945 16.063 2.835 4.607 1.85 8.19 4.606 10.748 8.267 2.599 3.622 3.898 8.11 3.898 13.465 0 2.953-.689 5.728-2.067 8.327-1.378 2.598-3.307 4.882-5.787 6.85-2.48 1.969-5.394 3.524-8.74 4.666-3.308 1.102-6.93 1.653-10.867 1.653H20.61V35.906Zm0 14.822v-9.92h12.992c4.292 0 8.209.491 11.752 1.475 3.544.945 6.595 2.363 9.154 4.252 2.559 1.89 4.527 4.233 5.905 7.028 1.378 2.756 2.067 5.925 2.067 9.508 0 4.016-.807 7.598-2.42 10.748-1.615 3.15-3.879 5.807-6.792 7.972-2.914 2.166-6.32 3.82-10.217 4.961-3.898 1.102-8.13 1.654-12.697 1.654-3.582 0-7.165-.473-10.748-1.418-3.582-.984-6.85-2.48-9.803-4.488-2.953-2.047-5.335-4.646-7.146-7.795C.886 71.515 0 67.716 0 63.307h19.96c0 1.811.493 3.465 1.477 4.96 1.024 1.457 2.382 2.619 4.075 3.485 1.693.866 3.523 1.3 5.492 1.3 2.44 0 4.508-.454 6.2-1.36 1.733-.944 3.052-2.204 3.957-3.779.906-1.574 1.359-3.326 1.359-5.255 0-2.914-.492-5.237-1.477-6.969-.945-1.732-2.342-2.992-4.193-3.78-1.81-.787-3.996-1.18-6.555-1.18H20.61Z" fill="url(#b)"/></g><defs><linearGradient id="b" x1="0" y1="88.406" x2="103.196" y2="33.304" gradientUnits="userSpaceOnUse"><stop stop-color="#E5A440"/><stop offset=".447" stop-color="#EFC57B"/><stop offset=".976" stop-color="#E7AC4E"/></linearGradient><clipPath id="a"><path fill="#fff" d="M0 0h65v89H0z"/></clipPath></defs></svg>
